src/components/buttons/PlayButtonNew/img/home.svg

<svg width="165" height="165" viewBox="0 0 165 165" fill="none" xmlns="http://www.w3.org/2000/svg">
<g clip-path="url(#clip0)">
<path d="M82.5005 43.3523L23.654 91.865C23.654 91.9335 23.6368 92.0342 23.6024 92.1715C23.5687 92.3078 23.5508 92.4067 23.5508 92.4769V141.601C23.5508 143.375 24.1992 144.912 25.4958 146.206C26.792 147.502 28.3269 148.153 30.101 148.153H69.3993V108.853H95.6019V148.155H134.9C136.674 148.155 138.211 147.504 139.505 146.206C140.802 144.913 141.452 143.375 141.452 141.601V92.4769C141.452 92.2045 141.415 91.9988 141.349 91.865L82.5005 43.3523Z" fill="white"/>
<path d="M163.862 80.8114L141.45 62.1849V20.4285C141.45 19.4739 141.143 18.6889 140.527 18.0745C139.916 17.4608 139.131 17.1539 138.175 17.1539H118.525C117.569 17.1539 116.785 17.4608 116.17 18.0745C115.557 18.6889 115.25 19.4743 115.25 20.4285V40.3853L90.2789 19.5065C88.098 17.7325 85.5049 16.8456 82.5024 16.8456C79.5002 16.8456 76.9075 17.7325 74.7244 19.5065L1.13725 80.8114C0.45509 81.3563 0.0812126 82.0897 0.0116707 83.011C-0.0575128 83.9315 0.180865 84.7355 0.727522 85.4173L7.07268 92.991C7.61934 93.6047 8.33483 93.98 9.22203 94.1173C10.0411 94.1861 10.8602 93.9466 11.6793 93.4011L82.5002 34.3469L153.322 93.4007C153.869 93.8767 154.584 94.1144 155.471 94.1144H155.779C156.665 93.9796 157.379 93.6018 157.928 92.9895L164.274 85.417C164.82 84.7338 165.059 83.9312 164.988 83.0095C164.918 82.0908 164.542 81.3574 163.862 80.8114Z" fill="white"/>
</g>
<defs>
<clipPath id="clip0">
<rect width="165" height="165" fill="white"/>
</clipPath>
</defs>
</svg>

<svg width="165" height="165" fill="none" xmlns="http://www.w3.org/2000/svg"><g clip-path="url(#clip0)" fill="#fff"><path d="M82.5 43.352L23.655 91.865c0 .069-.017.17-.052.306a1.401 1.401 0 0 0-.051.306V141.6c0 1.774.648 3.311 1.945 4.605 1.296 1.296 2.83 1.947 4.605 1.947h39.298v-39.3h26.203v39.302H134.9c1.774 0 3.311-.651 4.605-1.949 1.297-1.293 1.947-2.831 1.947-4.605V92.477c0-.273-.037-.478-.103-.612L82.501 43.352z"/><path d="M163.862 80.811L141.45 62.185V20.428c0-.954-.307-1.74-.923-2.354-.611-.613-1.396-.92-2.352-.92h-19.65c-.956 0-1.74.307-2.355.92-.613.615-.92 1.4-.92 2.354v19.957L90.279 19.507c-2.181-1.774-4.774-2.661-7.777-2.661-3.002 0-5.594.887-7.778 2.66L1.137 80.811c-.682.545-1.056 1.279-1.125 2.2-.07.92.169 1.725.716 2.406l6.345 7.574c.546.614 1.262.989 2.149 1.126.82.07 1.638-.17 2.457-.716L82.5 34.347 153.322 93.4c.547.476 1.262.713 2.149.713h.308c.886-.134 1.6-.512 2.149-1.124l6.346-7.573c.546-.683.785-1.486.714-2.407-.07-.92-.446-1.653-1.126-2.199z"/></g><defs><clipPath id="clip0"><path fill="#fff" d="M0 0h165v165H0z"/></clipPath></defs></svg>
